assets/images/footer-facebook.svg

<svg width="27" height="27" viewBox="0 0 27 27" fill="none" xmlns="http://www.w3.org/2000/svg">
<path fill-rule="evenodd" clip-rule="evenodd" d="M13.5 0C6.04416 0 0 6.04416 0 13.5C0 20.9558 6.04416 27 13.5 27C20.9558 27 27 20.9558 27 13.5C27 6.04416 20.9558 0 13.5 0ZM14.9075 14.093V21.4377H11.8686V14.0933H10.3504V11.5623H11.8686V10.0426C11.8686 7.97782 12.7259 6.75 15.1616 6.75H17.1893V9.28131H15.9218C14.9737 9.28131 14.911 9.63503 14.911 10.2952L14.9075 11.562H17.2037L16.935 14.093H14.9075Z" fill="white"/>
</svg>

<svg xmlns="http://www.w3.org/2000/svg" width="27" height="27" fill="none"><path fill="#fff" fill-rule="evenodd" d="M13.5 0C6.044 0 0 6.044 0 13.5S6.044 27 13.5 27 27 20.956 27 13.5 20.956 0 13.5 0Zm1.408 14.093v7.345h-3.04v-7.345H10.35v-2.53h1.519v-1.52c0-2.065.857-3.293 3.293-3.293h2.027v2.531h-1.267c-.948 0-1.011.354-1.011 1.014l-.003 1.267h2.296l-.269 2.531h-2.027Z" clip-rule="evenodd"/></svg>
